assets/svg/app/burn-custom-circle.svg

<svg width="62" height="62" viewBox="0 0 62 62" fill="none" xmlns="http://www.w3.org/2000/svg">
<g filter="url(#burn-custom-circle-filter0_d)">
<circle cx="31" cy="31" r="16" fill="#09092F"/>
<circle cx="31" cy="31" r="15" stroke="#FC8738" stroke-width="2"/>
</g>
<mask id="burn-custom-circle-path-3-inside-1" fill="white">
<path fill-rule="evenodd" clip-rule="evenodd" d="M31 23.5C31 23.5 30.7268 23.8511 30.3081 24.4372C28.9357 26.3583 26 30.8037 26 33.6804C26 36.3354 28.2456 38.5 31 38.5C33.7544 38.5 36 36.3354 36 33.6804C36 30.7915 33.0658 26.3544 31.6929 24.4365C31.2736 23.8508 31 23.5 31 23.5ZM29.4578 27.7591C30.0088 26.8441 30.5614 26.0206 31.001 25.3936C31.4403 26.019 31.9921 26.8402 32.5425 27.7532C33.151 28.7628 33.746 29.8653 34.1859 30.9268C34.6335 32.007 34.8819 32.9546 34.8819 33.6804C34.8819 35.6796 33.176 37.3819 31 37.3819C28.824 37.3819 27.1181 35.6796 27.1181 33.6804C27.1181 32.9593 27.3662 32.0142 27.814 30.9342C28.254 29.8732 28.8491 28.7699 29.4578 27.7591ZM29.8462 35.0451C29.8462 34.1065 31 32.5 31 32.5C31 32.5 32.1538 34.1023 32.1538 35.0451C32.1538 35.7088 31.6356 36.25 31 36.25C30.3644 36.25 29.8462 35.7088 29.8462 35.0451Z"/>
</mask>
<path fill-rule="evenodd" clip-rule="evenodd" d="M31 23.5C31 23.5 30.7268 23.8511 30.3081 24.4372C28.9357 26.3583 26 30.8037 26 33.6804C26 36.3354 28.2456 38.5 31 38.5C33.7544 38.5 36 36.3354 36 33.6804C36 30.7915 33.0658 26.3544 31.6929 24.4365C31.2736 23.8508 31 23.5 31 23.5ZM29.4578 27.7591C30.0088 26.8441 30.5614 26.0206 31.001 25.3936C31.4403 26.019 31.9921 26.8402 32.5425 27.7532C33.151 28.7628 33.746 29.8653 34.1859 30.9268C34.6335 32.007 34.8819 32.9546 34.8819 33.6804C34.8819 35.6796 33.176 37.3819 31 37.3819C28.824 37.3819 27.1181 35.6796 27.1181 33.6804C27.1181 32.9593 27.3662 32.0142 27.814 30.9342C28.254 29.8732 28.8491 28.7699 29.4578 27.7591ZM29.8462 35.0451C29.8462 34.1065 31 32.5 31 32.5C31 32.5 32.1538 34.1023 32.1538 35.0451C32.1538 35.7088 31.6356 36.25 31 36.25C30.3644 36.25 29.8462 35.7088 29.8462 35.0451Z" fill="#FC8738"/>
<path d="M30.3081 24.4372L31.2179 25.0871L31.2179 25.0871L30.3081 24.4372ZM31 23.5L31.8815 22.8123L30.9988 21.6808L30.1176 22.8134L31 23.5ZM31.6929 24.4365L32.6021 23.7857L32.6021 23.7857L31.6929 24.4365ZM31.001 25.3936L31.9159 24.7509L31.0001 23.4473L30.0855 24.7517L31.001 25.3936ZM29.4578 27.7591L28.5 27.1824L28.5 27.1824L29.4578 27.7591ZM32.5425 27.7532L33.5 27.176L33.5 27.176L32.5425 27.7532ZM34.1859 30.9268L33.153 31.3548L33.153 31.3548L34.1859 30.9268ZM27.814 30.9342L26.7813 30.5059L26.7812 30.5059L27.814 30.9342ZM31 32.5L31.9073 31.8466L30.9988 30.5851L30.0919 31.8478L31 32.5ZM31.2179 25.0871C31.4218 24.8017 31.5897 24.5742 31.7059 24.4191C31.764 24.3416 31.809 24.2823 31.8391 24.2429C31.8542 24.2232 31.8655 24.2085 31.8728 24.1991C31.8764 24.1943 31.8791 24.1909 31.8807 24.1888C31.8815 24.1878 31.882 24.1871 31.8823 24.1867C31.8825 24.1865 31.8826 24.1864 31.8826 24.1864C31.8826 24.1864 31.8826 24.1864 31.8825 24.1864C31.8825 24.1864 31.8825 24.1865 31.8825 24.1865C31.8825 24.1865 31.8825 24.1865 31.8825 24.1865C31.8824 24.1866 31.8824 24.1866 31 23.5C30.1176 22.8134 30.1176 22.8135 30.1175 22.8135C30.1175 22.8135 30.1175 22.8135 30.1175 22.8136C30.1174 22.8136 30.1174 22.8137 30.1174 22.8137C30.1173 22.8138 30.1172 22.814 30.117 22.8141C30.1168 22.8145 30.1165 22.8149 30.1161 22.8154C30.1153 22.8164 30.1143 22.8177 30.113 22.8194C30.1104 22.8227 30.1068 22.8274 30.1021 22.8334C30.0929 22.8454 30.0795 22.8627 30.0624 22.8851C30.0282 22.9299 29.9788 22.995 29.9162 23.0785C29.7911 23.2455 29.6131 23.4866 29.3984 23.7873L31.2179 25.0871ZM27.1181 33.6804C27.1181 32.5393 27.7292 30.9211 28.6276 29.2234C29.5001 27.5746 30.5454 26.0283 31.2179 25.0871L29.3984 23.7873C28.6983 24.7671 27.5896 26.4042 26.6512 28.1775C25.7386 29.9019 24.8819 31.9448 24.8819 33.6804H27.1181ZM31 37.3819C28.824 37.3819 27.1181 35.6795 27.1181 33.6804H24.8819C24.8819 36.9913 27.6672 39.6181 31 39.6181V37.3819ZM34.8819 33.6804C34.8819 35.6795 33.176 37.3819 31 37.3819V39.6181C34.3328 39.6181 37.1181 36.9913 37.1181 33.6804H34.8819ZM30.7838 25.0873C31.4563 26.0267 32.5011 27.5698 33.3731 29.2174C34.2707 30.9132 34.8819 32.5327 34.8819 33.6804H37.1181C37.1181 31.9392 36.2622 29.8957 35.3495 28.1713C34.4112 26.3986 33.3024 24.7642 32.6021 23.7857L30.7838 25.0873ZM31 23.5C30.1185 24.1877 30.1184 24.1877 30.1184 24.1877C30.1184 24.1876 30.1184 24.1876 30.1184 24.1876C30.1184 24.1876 30.1183 24.1876 30.1183 24.1875C30.1183 24.1875 30.1183 24.1875 30.1183 24.1875C30.1183 24.1875 30.1184 24.1876 30.1185 24.1878C30.1188 24.1882 30.1194 24.1889 30.1202 24.1899C30.1218 24.192 30.1245 24.1954 30.1281 24.2001C30.1354 24.2096 30.1467 24.2243 30.1618 24.2439C30.1919 24.2832 30.237 24.3425 30.2952 24.4199C30.4115 24.5748 30.5796 24.8021 30.7838 25.0873L32.6021 23.7857C32.3869 23.4852 32.2086 23.2442 32.0833 23.0773C32.0206 22.9938 31.9711 22.9288 31.9368 22.884C31.9197 22.8616 31.9063 22.8443 31.897 22.8323C31.8924 22.8263 31.8888 22.8216 31.8862 22.8182C31.8849 22.8166 31.8838 22.8152 31.8831 22.8142C31.8827 22.8137 31.8824 22.8133 31.8821 22.813C31.882 22.8128 31.8819 22.8127 31.8818 22.8126C31.8817 22.8125 31.8817 22.8125 31.8816 22.8124C31.8816 22.8124 31.8816 22.8124 31.8816 22.8124C31.8816 22.8123 31.8815 22.8123 31 23.5ZM30.0855 24.7517C29.6353 25.3939 29.0677 26.2396 28.5 27.1824L30.4156 28.3359C30.9499 27.4485 31.4874 26.6473 31.9164 26.0355L30.0855 24.7517ZM33.5 27.176C32.9329 26.2352 32.3659 25.3916 31.9159 24.7509L30.0861 26.0362C30.5146 26.6464 31.0514 27.4453 31.5849 28.3304L33.5 27.176ZM35.2188 30.4988C34.75 29.3676 34.125 28.2128 33.5 27.176L31.5849 28.3304C32.177 29.3127 32.742 30.363 33.153 31.3548L35.2188 30.4988ZM36 33.6804C36 32.7374 35.6874 31.6296 35.2187 30.4987L33.153 31.3548C33.5796 32.3844 33.7639 33.1717 33.7639 33.6804H36ZM31 38.5C33.7579 38.5 36 36.332 36 33.6804H33.7639C33.7639 35.0271 32.5941 36.2639 31 36.2639V38.5ZM26 33.6804C26 36.332 28.2421 38.5 31 38.5V36.2639C29.4059 36.2639 28.2361 35.0271 28.2361 33.6804H26ZM26.7812 30.5059C26.3126 31.6359 26 32.7416 26 33.6804H28.2361C28.2361 33.177 28.4197 32.3925 28.8468 31.3624L26.7812 30.5059ZM28.5 27.1824C27.875 28.2202 27.25 29.3755 26.7813 30.5059L28.8468 31.3624C29.258 30.3709 29.8232 29.3196 30.4156 28.3359L28.5 27.1824ZM31 32.5C30.0919 31.8478 30.0918 31.8479 30.0917 31.848C30.0917 31.8481 30.0916 31.8482 30.0915 31.8483C30.0913 31.8486 30.0912 31.8488 30.091 31.8491C30.0906 31.8496 30.0902 31.8502 30.0896 31.8509C30.0886 31.8524 30.0873 31.8542 30.0857 31.8565C30.0825 31.8609 30.0783 31.8669 30.073 31.8744C30.0625 31.8893 30.048 31.9101 30.0299 31.9362C29.9939 31.9885 29.9438 32.0624 29.8842 32.1534C29.7658 32.3344 29.6066 32.5882 29.4458 32.8774C29.2867 33.1637 29.1159 33.5027 28.9823 33.8518C28.8552 34.1837 28.7281 34.6096 28.7281 35.0451H30.9642C30.9642 35.0113 30.9813 34.8845 31.0706 34.6512C31.1534 34.435 31.271 34.1965 31.4003 33.9638C31.528 33.734 31.6573 33.5276 31.7552 33.378C31.8038 33.3037 31.8438 33.2448 31.8709 33.2055C31.8844 33.1859 31.8947 33.1713 31.9011 33.1622C31.9043 33.1577 31.9065 33.1545 31.9077 33.1528C31.9083 33.152 31.9086 33.1515 31.9087 33.1514C31.9087 33.1513 31.9087 33.1514 31.9086 33.1515C31.9086 33.1516 31.9085 33.1517 31.9084 33.1518C31.9084 33.1519 31.9083 33.152 31.9083 33.152C31.9082 33.1521 31.9081 33.1522 31 32.5ZM33.2719 35.0451C33.2719 34.609 33.1451 34.1829 33.0178 33.8502C32.8841 33.5007 32.7132 33.1616 32.5539 32.8754C32.3931 32.5863 32.2338 32.3327 32.1152 32.152C32.0556 32.0611 32.0054 31.9872 31.9694 31.9351C31.9513 31.9089 31.9367 31.8881 31.9262 31.8732C31.9209 31.8658 31.9167 31.8598 31.9135 31.8553C31.9119 31.8531 31.9106 31.8513 31.9096 31.8498C31.9091 31.8491 31.9086 31.8485 31.9082 31.8479C31.908 31.8477 31.9079 31.8474 31.9077 31.8472C31.9076 31.8471 31.9075 31.847 31.9075 31.8469C31.9074 31.8468 31.9073 31.8466 31 32.5C30.0927 33.1534 30.0926 33.1532 30.0925 33.1531C30.0925 33.1531 30.0924 33.153 30.0924 33.1529C30.0923 33.1528 30.0923 33.1527 30.0922 33.1526C30.0921 33.1525 30.0921 33.1525 30.0921 33.1525C30.0922 33.1526 30.0925 33.1531 30.0931 33.1539C30.0943 33.1556 30.0965 33.1587 30.0997 33.1632C30.1061 33.1722 30.1163 33.1868 30.1298 33.2063C30.1568 33.2454 30.1968 33.3042 30.2454 33.3782C30.3432 33.5274 30.4723 33.7333 30.5999 33.9626C30.7291 34.1948 30.8466 34.4331 30.9293 34.6491C31.0184 34.8821 31.0358 35.0098 31.0358 35.0451H33.2719ZM31 37.3681C32.2982 37.3681 33.2719 36.2802 33.2719 35.0451H31.0358C31.0358 35.0826 31.0219 35.1085 31.0078 35.1232C31.0009 35.1303 30.9961 35.1326 30.9957 35.1328C30.9956 35.1328 30.9962 35.1326 30.9975 35.1323C30.9981 35.1321 30.9987 35.1321 30.9992 35.132C30.9998 35.1319 31 35.1319 31 35.1319V37.3681ZM28.7281 35.0451C28.7281 36.2802 29.7018 37.3681 31 37.3681V35.1319C31 35.1319 31.0003 35.1319 31.0008 35.132C31.0013 35.1321 31.0019 35.1321 31.0025 35.1323C31.0038 35.1326 31.0044 35.1328 31.0043 35.1328C31.0039 35.1326 30.9991 35.1303 30.9922 35.1232C30.9781 35.1085 30.9642 35.0826 30.9642 35.0451H28.7281Z" fill="#FC8738" mask="url(#burn-custom-circle-path-3-inside-1)"/>
<defs>
<filter id="burn-custom-circle-filter0_d" x="0" y="0" width="62" height="62" filterUnits="userSpaceOnUse" color-interpolation-filters="sRGB">
<feFlood flood-opacity="0" result="BackgroundImageFix"/>
<feColorMatrix in="SourceAlpha" type="matrix" values="0 0 0 0 0 0 0 0 0 0 0 0 0 0 0 0 0 0 127 0"/>
<feOffset/>
<feGaussianBlur stdDeviation="7.5"/>
<feColorMatrix type="matrix" values="0 0 0 0 0.988235 0 0 0 0 0.529412 0 0 0 0 0.219608 0 0 0 0.6 0"/>
<feBlend mode="normal" in2="BackgroundImageFix" result="effect1_dropShadow"/>
<feBlend mode="normal" in="SourceGraphic" in2="effect1_dropShadow" result="shape"/>
</filter>
</defs>
</svg>

<svg width="62" height="62" fill="none" xmlns="http://www.w3.org/2000/svg">
    <g filter="url(#a)">
        <circle cx="31" cy="31" r="16" fill="#09092F"/>
        <circle cx="31" cy="31" r="15" stroke="#FC8738" stroke-width="2"/>
    </g>
    <mask id="b" fill="#fff">
        <path fill-rule="evenodd" clip-rule="evenodd" d="M31 23.5s-.273.351-.692.937C28.936 26.358 26 30.804 26 33.68c0 2.655 2.246 4.82 5 4.82s5-2.165 5-4.82c0-2.889-2.934-7.326-4.307-9.244-.42-.585-.693-.936-.693-.936Zm-1.542 4.26A41.254 41.254 0 0 1 31 25.393c.44.625.991 1.446 1.541 2.36.609 1.009 1.204 2.111 1.644 3.173.447 1.08.696 2.028.696 2.753 0 2-1.706 3.702-3.882 3.702s-3.882-1.702-3.882-3.702c0-.72.248-1.666.696-2.746.44-1.06 1.035-2.164 1.644-3.175Zm.388 7.285C29.846 34.106 31 32.5 31 32.5s1.154 1.602 1.154 2.545c0 .664-.518 1.205-1.154 1.205-.636 0-1.154-.541-1.154-1.205Z"/>
    </mask>
    <path fill-rule="evenodd" clip-rule="evenodd" d="M31 23.5s-.273.351-.692.937C28.936 26.358 26 30.804 26 33.68c0 2.655 2.246 4.82 5 4.82s5-2.165 5-4.82c0-2.889-2.934-7.326-4.307-9.244-.42-.585-.693-.936-.693-.936Zm-1.542 4.26A41.254 41.254 0 0 1 31 25.393c.44.625.991 1.446 1.541 2.36.609 1.009 1.204 2.111 1.644 3.173.447 1.08.696 2.028.696 2.753 0 2-1.706 3.702-3.882 3.702s-3.882-1.702-3.882-3.702c0-.72.248-1.666.696-2.746.44-1.06 1.035-2.164 1.644-3.175Zm.388 7.285C29.846 34.106 31 32.5 31 32.5s1.154 1.602 1.154 2.545c0 .664-.518 1.205-1.154 1.205-.636 0-1.154-.541-1.154-1.205Z" fill="#FC8738"/>
    <path d="m30.308 24.437.91.65-.91-.65ZM31 23.5l.881-.688L31 21.681l-.881 1.132.882.687Zm.693.936.91-.65-.91.65Zm-.692.958.915-.643L31 23.447l-.915 1.305.916.642Zm-1.543 2.365-.958-.577.958.577Zm3.084-.006.958-.577-.958.577Zm1.644 3.174-1.033.428 1.033-.428Zm-6.372.007-1.033-.428 1.033.428ZM31 32.5l.907-.653L31 30.585l-.907 1.263.908.652Zm.218-7.413a36.96 36.96 0 0 1 .655-.888l.008-.01.001-.002L31 23.5c-.882-.687-.882-.686-.883-.686v.001a.25.25 0 0 0-.004.004l-.01.014-.04.052-.147.193c-.125.168-.303.409-.518.71l1.82 1.3Zm-4.1 8.593c0-1.14.611-2.759 1.51-4.457.872-1.648 1.917-3.195 2.59-4.136l-1.82-1.3c-.7.98-1.808 2.617-2.747 4.39-.912 1.725-1.77 3.768-1.77 5.503h2.237ZM31 37.382c-2.176 0-3.882-1.703-3.882-3.702h-2.236c0 3.311 2.785 5.938 6.118 5.938v-2.236Zm3.882-3.702c0 2-1.706 3.702-3.882 3.702v2.236c3.333 0 6.118-2.627 6.118-5.938h-2.236Zm-4.098-8.593c.672.94 1.717 2.483 2.59 4.13.897 1.696 1.508 3.316 1.508 4.463h2.236c0-1.74-.856-3.784-1.769-5.509-.938-1.772-2.047-3.407-2.747-4.385l-1.818 1.301ZM31 23.5l-.882.688.002.002.008.01a42.972 42.972 0 0 0 .167.22c.116.155.285.382.489.667l1.818-1.301a39.35 39.35 0 0 0-.719-.972v-.001h-.001L31 23.5Zm-.915 1.252a42.385 42.385 0 0 0-1.585 2.43l1.916 1.154a40.063 40.063 0 0 1 1.5-2.3l-1.83-1.284Zm3.415 2.424a42.055 42.055 0 0 0-1.584-2.425l-1.83 1.285c.429.61.965 1.41 1.499 2.294l1.915-1.154Zm1.719 3.323c-.469-1.131-1.094-2.286-1.719-3.323l-1.915 1.154c.592.983 1.157 2.033 1.568 3.025l2.066-.856ZM36 33.68c0-.943-.313-2.05-.781-3.181l-2.066.856c.427 1.03.61 1.817.61 2.325H36Zm-5 4.82c2.758 0 5-2.168 5-4.82h-2.236c0 1.347-1.17 2.584-2.764 2.584V38.5Zm-5-4.82c0 2.652 2.242 4.82 5 4.82v-2.236c-1.594 0-2.764-1.237-2.764-2.584H26Zm.781-3.174c-.468 1.13-.781 2.236-.781 3.174h2.236c0-.503.184-1.288.61-2.318l-2.065-.856Zm1.719-3.324c-.625 1.038-1.25 2.194-1.719 3.324l2.066.856c.411-.991.976-2.042 1.569-3.026L28.5 27.182ZM31 32.5l-.908-.652-.001.001-.001.002-.004.006-.013.017a10.735 10.735 0 0 0-.627 1.003c-.16.287-.33.626-.464.975-.127.332-.254.758-.254 1.193h2.236c0-.034.017-.16.107-.394.082-.216.2-.455.33-.687a9.652 9.652 0 0 1 .47-.758l.03-.044.007-.01L31 32.5Zm2.272 2.545c0-.436-.127-.862-.254-1.195a7.722 7.722 0 0 0-.464-.975 11.736 11.736 0 0 0-.628-1.002c-.005-.007-.01-.013-.012-.018a.177.177 0 0 1-.004-.005l-.002-.002v-.001L31 32.5l-.907.653a3.909 3.909 0 0 0 .037.053 9.017 9.017 0 0 1 .47.757c.13.232.247.47.33.686.088.233.106.36.106.396h2.236ZM31 37.368c1.298 0 2.272-1.088 2.272-2.323h-2.236a.111.111 0 0 1-.028.078l-.012.01h.002l.001-.001H31v2.236Zm-2.272-2.323c0 1.235.974 2.323 2.272 2.323v-2.236h.003a.01.01 0 0 1 .001 0s-.005-.002-.012-.009a.111.111 0 0 1-.028-.078h-2.236Z" fill="#FC8738" mask="url(#b)"/>
    <defs>
        <filter id="a" x="0" y="0" width="62" height="62" filterUnits="userSpaceOnUse" color-interpolation-filters="sRGB">
            <feFlood flood-opacity="0" result="BackgroundImageFix"/>
            <feColorMatrix in="SourceAlpha" values="0 0 0 0 0 0 0 0 0 0 0 0 0 0 0 0 0 0 127 0"/>
            <feOffset/>
            <feGaussianBlur stdDeviation="7.5"/>
            <feColorMatrix values="0 0 0 0 0.988235 0 0 0 0 0.529412 0 0 0 0 0.219608 0 0 0 0.6 0"/>
            <feBlend in2="BackgroundImageFix" result="effect1_dropShadow"/>
            <feBlend in="SourceGraphic" in2="effect1_dropShadow" result="shape"/>
        </filter>
    </defs>
</svg>
